X: 30
M:3/4
L:1/8
K:D
"Andantino"DE|F2 A2 B>A|d2 d2 (3def|e2 d2 f>d|c>B B2 AF|A2 A2 FA|B4 AF|
fg|f2 e2 ga|g2 f2 ba|gf ed cd|d2 c2 A2|

